X: 4
T: God Rest Ye Merry
M: 4/4
C: Edw. Huws-Jones
L: 1/4
K: G
V: 1 name="Vln I" snm="" clef=treble
%%MIDI channel 1
%%MIDI program 40
|: !f!ue | "Em" e b b a | g f e d | "C" e f g a |
w: God rest ye mer-ry, gent-le-men, let noth-ing you dis-
"B7" b3 !mf!e | "Em" d b b a | g f e d | "C" e f g a |
w: may; Re-mem-ber Christ our Sav - ior was born on Christ-mas
"B7" b3 b | "Dm" c' a b c' | "G" d' e' "E7" b a | "Am" g e f g |
w: Day,  to save us all from Sat-an's power when we had gone a-
"G" a2 g a | "C" b2 "F" c "C" b | "B7" (b a) g f | "Am" e2 "C" g/f/ e |
w: stray, oh - ti- dings of com - fort and joy; com-fort and
"D" a2 g a | "G" b c' d' "C" e' | "B7" b a g f | "Em" e3 :|
w: joy,  oh - ti - dings of com - fort and joy.
V: 2 name="Vln II" snm="" clef=treble
%%MIDI channel 2
%%MIDI program 40
|:   ue | e2 g f | e2 g f | e2 e d |
G3 ue | e2 g f | e2 g f | e2 e d |
G3 ug | A c B A | G2 g a | (b g) f e |
d2 e d | G2 A G | (G A) B d | e2 e/e/ e |
d2 e d | G2 B c | (G A) B d | e3 :|
